app/component-library/components/Icons/Icon/assets/add.svg

<svg width="20" height="20" viewBox="0 0 20 20" fill="none" xmlns="http://www.w3.org/2000/svg">
<path d="M10 17.5C9.35714 17.5 8.92857 17.0714 8.92857 16.4286V11.0714H3.57143C2.92857 11.0714 2.5 10.6429 2.5 10C2.5 9.35714 2.92857 8.92857 3.57143 8.92857H8.92857V3.57143C8.92857 2.92857 9.35714 2.5 10 2.5C10.6429 2.5 11.0714 2.92857 11.0714 3.57143V8.92857H16.4286C17.0714 8.92857 17.5 9.35714 17.5 10C17.5 10.6429 17.0714 11.0714 16.4286 11.0714H11.0714V16.4286C11.0714 17.0714 10.6429 17.5 10 17.5Z" fill="currentColor"/>
</svg>

<svg xmlns="http://www.w3.org/2000/svg" height="20" width="20" viewBox="0 0 20 20" fill="none"><path d="M10 17.5c-.643 0-1.071-.429-1.071-1.071v-5.357H3.571c-.643 0-1.071-.429-1.071-1.071s.429-1.071 1.071-1.071h5.357V3.571c0-.643.429-1.071 1.071-1.071s1.071.429 1.071 1.071v5.357h5.357c.643 0 1.071.429 1.071 1.071s-.429 1.071-1.071 1.071h-5.357v5.357c0 .643-.429 1.071-1.071 1.071z" fill="currentColor"/></svg>
